X: 5
T: Two Days To Go
R: reel
M: 4/4
L: 1/8
K: Gmaj
G3d e~B3|dedB AdBA|(3GAB dg ed (3Bcd|e2dG BABA|
G3d e~B3|dedB AGED|EDGB AGGB|1 dGAB AdBA:|2 dGAB AGG2||
|:b2gb a~g3|eged e~B3|(3gab ag ag2d|egeg a2ga|
b2ab aged|egdB AGED|EDGB AGGB|dGAB AGG2:|

